X:823
T:Reel 823
M:4/4
K:Gmaj
L:1/8
ge|dG (3BAG dGBG|AD (3DEF GBAG|FGAB cdef|| (3gab af gedc:||2 (3fed ag bgg2| (3def gd Bdgd| (3BcB ef gefg| (3efg dB cABc|| (3efg dc' bggf:||2 (3efg dc BGG2|
